src/lib/packages/icons/src/assets/line/like-tag.svg

<svg width="24" height="24" viewBox="0 0 24 24" fill="none" xmlns="http://www.w3.org/2000/svg">
<path d="M17.667 1.25H6.33301C3.70001 1.25 2.25 2.70001 2.25 5.33301V15.333C2.25 17.966 3.70001 19.416 6.33301 19.416H7.83301C8.12001 19.416 8.39502 19.553 8.56702 19.783L10.066 21.783C10.527 22.397 11.231 22.75 12 22.75C12.769 22.75 13.473 22.3971 13.933 21.7841L15.433 19.784C15.606 19.554 15.88 19.416 16.167 19.416H17.667C20.3 19.416 21.75 17.966 21.75 15.333V5.33301C21.75 2.70001 20.3 1.25 17.667 1.25ZM20.25 15.333C20.25 17.144 19.478 17.916 17.667 17.916H16.167C15.411 17.916 14.688 18.277 14.233 18.883L12.7321 20.8831C12.3841 21.3491 11.616 21.3491 11.266 20.8831L9.76599 18.883C9.31199 18.278 8.58803 17.917 7.83203 17.917H6.33203C4.52103 17.917 3.74902 17.145 3.74902 15.334V5.33398C3.74902 3.52298 4.52103 2.75098 6.33203 2.75098H17.666C19.477 2.75098 20.249 3.52298 20.249 5.33398V15.333H20.25ZM15.115 7.66699H13.804V6.70898C13.804 5.92698 13.415 5.20101 12.765 4.76801C12.358 4.49701 11.859 4.429 11.397 4.578C10.933 4.727 10.5689 5.075 10.3879 5.56L9.34497 8.72302H8.04102C7.19002 8.72302 6.49902 9.41401 6.49902 10.265V13.96C6.49902 14.81 7.19002 15.502 8.04102 15.502H14.0601C15.5381 15.502 15.997 14.735 16.274 13.907L17.33 10.74C17.613 9.88799 17.542 9.10398 17.13 8.53198C16.846 8.13598 16.266 7.66699 15.115 7.66699ZM8 13.964V10.223H8.75V13.964H8ZM15.906 10.263L14.851 13.43C14.689 13.913 14.6611 14 14.0601 14L10.249 13.974V10.12C10.41 10.03 10.54 9.88997 10.6 9.70697L11.812 6.02899L11.933 6.01501C12.165 6.17001 12.304 6.42901 12.304 6.70801V8.41602C12.304 8.83002 12.64 9.16602 13.054 9.16602H15.115C15.517 9.16602 15.802 9.25098 15.913 9.40698C16.03 9.56998 16.028 9.898 15.906 10.263Z" fill="currentColor"/>
</svg>

<svg xmlns="http://www.w3.org/2000/svg" width="24" height="24" fill="none"><path fill="currentColor" d="M17.667 1.25H6.333C3.7 1.25 2.25 2.7 2.25 5.333v10c0 2.633 1.45 4.083 4.083 4.083h1.5c.287 0 .562.137.734.367l1.499 2A2.398 2.398 0 0 0 12 22.75c.769 0 1.473-.353 1.933-.966l1.5-2a.924.924 0 0 1 .734-.368h1.5c2.633 0 4.083-1.45 4.083-4.083v-10c0-2.633-1.45-4.083-4.083-4.083Zm2.583 14.083c0 1.811-.772 2.583-2.583 2.583h-1.5a2.43 2.43 0 0 0-1.934.967l-1.5 2c-.349.466-1.117.466-1.467 0l-1.5-2a2.43 2.43 0 0 0-1.934-.966h-1.5c-1.811 0-2.583-.772-2.583-2.583v-10c0-1.811.772-2.583 2.583-2.583h11.334c1.811 0 2.583.772 2.583 2.583v9.999h.001Zm-5.135-7.666h-1.311v-.958c0-.782-.389-1.508-1.039-1.941a1.59 1.59 0 0 0-2.377.792L9.345 8.723H8.041c-.851 0-1.542.691-1.542 1.542v3.695c0 .85.691 1.542 1.542 1.542h6.02c1.477 0 1.936-.767 2.213-1.595l1.056-3.167c.283-.852.212-1.636-.2-2.208-.284-.396-.864-.865-2.015-.865ZM8 13.964v-3.741h.75v3.741H8Zm7.906-3.701-1.055 3.167c-.162.483-.19.57-.79.57l-3.812-.026V10.12a.74.74 0 0 0 .351-.413l1.212-3.678.121-.014a.832.832 0 0 1 .371.693v1.708c0 .414.336.75.75.75h2.061c.402 0 .687.085.798.241.117.163.115.491-.007.856Z"/></svg>
